X: 2
T: La Maison de Glace
M: 6/8
L: 1/8
R: 6/8
K: D
|:\
"D"D3 DEF | "D/F#"ABA AFA | "G"B3 Bcd | "A7"cBA GFE | "D"D2D DEF |\
"D/F#"ABA AFA |[1 "G"B3 BAG | "A"F3 EFE :|[2 "G"B3 Bcd | "A"c3- "F#m"c3 |]
|:\
"Bm"B2-B- Bcd | "G"B3- Bcd | "D"fed "A7"edc | "Bm"dcA "F#m"dcA |\
"Bm"B2-B- Bcd | "G"B3- Bcd | "D"fed "A7"edc |[1 Adc "F#m"d2c :|[2 Adc "D"d3 |]


